X:31
T:Castlemaine Bridge
B:Terry "Cuz" Teahan "Sliabh Luachra on Parade" 1980
Z:Patrick Cavanagh
M:12/8
L:1/8
R:Slide
K:D
D | EGE EDE G2F G2A | BcB BAB d3 d2f | 
ege d2B AFE D2E | FBB AFD E3 E2 :| 
A | Bee edB d2B ABd | Bee edB d3 d2f | 
ege d2B AFE D2E | F2B AFD E3 E2 :|| 

